public/images/icon-telegram.svg

<svg width="17" height="17" viewBox="0 0 17 17" fill="none" xmlns="http://www.w3.org/2000/svg">
<mask id="mask0_12_1616" style="mask-type:luminance" maskUnits="userSpaceOnUse" x="0" y="0" width="17" height="17">
<path d="M16.25 0.98999H0.26001V16.98H16.25V0.98999Z" fill="currentColor"/>
</mask>
<g mask="url(#mask0_12_1616)">
<path d="M8.25482 1.23975C3.97635 1.23975 0.509857 4.70624 0.509857 8.98471C0.509857 13.2632 3.97635 16.7297 8.25482 16.7297C12.5333 16.7297 15.9998 13.2632 15.9998 8.98471C15.9998 4.70624 12.5333 1.23975 8.25482 1.23975ZM12.0586 6.54567L10.7875 12.5355C10.6939 12.9602 10.4409 13.0633 10.088 12.8634L8.15176 11.4362L7.21799 12.3357C7.11494 12.4387 7.02749 12.5262 6.82762 12.5262L6.96503 10.5556L10.5533 7.31392C10.7095 7.17651 10.519 7.09844 10.3129 7.23585L5.87824 10.0278L3.96698 9.43129C3.55163 9.30013 3.54226 9.01594 4.05443 8.81607L11.5214 5.93669C11.8681 5.81177 12.171 6.02101 12.0586 6.54567Z" fill="currentColor"/>
</g>
</svg>

<svg xmlns="http://www.w3.org/2000/svg" width="17" height="17" fill="none"><mask id="a" width="17" height="17" x="0" y="0" maskUnits="userSpaceOnUse" style="mask-type:luminance"><path fill="currentColor" d="M16.25.99H.26v15.99h15.99V.99Z"/></mask><g mask="url(#a)"><path fill="currentColor" d="M8.2548 1.2397c-4.2784 0-7.745 3.4665-7.745 7.745s3.4665 7.745 7.745 7.745 7.745-3.4665 7.745-7.745-3.4665-7.745-7.745-7.745Zm3.8038 5.306-1.2711 5.9898c-.0936.4247-.3466.5278-.6995.3279l-1.9362-1.4272-.9338.8995c-.103.103-.1905.1905-.3904.1905l.1374-1.9706 3.5883-3.2417c.1562-.1374-.0343-.2155-.2404-.078l-4.4347 2.7919-1.9112-.5965c-.4154-.1312-.4247-.4154.0874-.6152l7.467-2.8794c.3467-.125.6496.0843.5372.609Z"/></g></svg>
